source/img/zigzag-head-desktop.svg

<svg width="1250" height="34" fill="none" xmlns="http://www.w3.org/2000/svg"><path d="M1218.8 0c-15.65 0-15.65 14-31.19 14-15.54 0-15.65-14-31.2-14-15.54 0-15.65 14-31.19 14-15.65 0-15.65-14-31.31-14-15.65 0-15.65 14-31.19 14-15.65 0-15.65-14-31.2-14-15.65 0-15.65 14-31.19 14-15.547 0-15.982-14-31.526-14-15.652 0-15.652 14-31.195 14-15.544 0-15.761-14-31.305-14-15.652 0-15.652 14-31.195 14-15.653 0-15.653-14-31.305-14s-15.652 14-31.195 14c-15.653 0-15.652-14-31.196-14C765.87 0 765.652 14 750 14c-15.652 0-15.652-14-31.196-14-15.652 0-15.652 14-31.195 14-15.653 0-15.653-14-31.305-14s-15.652 14-31.195 14c-15.653 0-15.652-14-31.196-14-15.652 0-15.652 14-31.196 14-15.652 0-15.652-14-31.195-14-15.652 0-15.652 14-31.305 14-15.652 0-15.652-14-31.304-14s-15.652 14-31.304 14-15.652-14-31.305-14C390.652 0 390.652 14 375 14S359.348 0 343.696 0c-15.653 0-15.653 14-31.305 14S296.739 0 281.087 0s-15.652 14-31.196 14c-15.652 0-15.652-14-31.304-14s-15.652 14-31.304 14C171.63 14 171.63 0 155.978 0s-15.652 14-31.304 14S109.022 0 93.37 0C78.152 0 78.152 14 62.5 14 46.848 14 46.848 0 31.304 0 15.761 0 15.652 14 0 14v20h1250V14c-15.65 0-15.65-14-31.2-14z" fill="#fff"/></svg>

<svg width="1250" height="34" viewBox="0 0 1250 34" fill="none" xmlns="http://www.w3.org/2000/svg">
<path d="M1218.8 0C1203.15 0 1203.15 14 1187.61 14C1172.07 14 1171.96 0 1156.41 0C1140.87 0 1140.76 14 1125.22 14C1109.57 14 1109.57 0 1093.91 0C1078.26 0 1078.26 14 1062.72 14C1047.07 14 1047.07 0 1031.52 0C1015.87 0 1015.87 14 1000.33 14C984.783 14 984.348 0 968.804 0C953.152 0 953.152 14 937.609 14C922.065 14 921.848 0 906.304 0C890.652 0 890.652 14 875.109 14C859.456 14 859.456 0 843.804 0C828.152 0 828.152 14 812.609 14C796.956 14 796.957 0 781.413 0C765.87 0 765.652 14 750 14C734.348 14 734.348 0 718.804 0C703.152 0 703.152 14 687.609 14C671.956 14 671.956 0 656.304 0C640.652 0 640.652 14 625.109 14C609.456 14 609.457 0 593.913 0C578.261 0 578.261 14 562.717 14C547.065 14 547.065 0 531.522 0C515.87 0 515.87 14 500.217 14C484.565 14 484.565 0 468.913 0C453.261 0 453.261 14 437.609 14C421.957 14 421.957 0 406.304 0C390.652 0 390.652 14 375 14C359.348 14 359.348 0 343.696 0C328.043 0 328.043 14 312.391 14C296.739 14 296.739 0 281.087 0C265.435 0 265.435 14 249.891 14C234.239 14 234.239 0 218.587 0C202.935 0 202.935 14 187.283 14C171.63 14 171.63 0 155.978 0C140.326 0 140.326 14 124.674 14C109.022 14 109.022 0 93.3696 0C78.1522 0 78.1522 14 62.5 14C46.8478 14 46.8478 0 31.3043 0C15.7609 0 15.6522 14 0 14V34H1250V14C1234.35 14 1234.35 0 1218.8 0Z" fill="white"/>
</svg>
